docs/.gitbook/assets/icon-goal-16@dark.svg

<svg width="32" height="32" viewBox="0 0 16 16" fill="none" xmlns="http://www.w3.org/2000/svg">
<rect x="0" y="0" width="16" height="16" fill="#181c1f"/>
<path fill-rule="evenodd" clip-rule="evenodd" d="M1 2.75C1 2.33579 1.33579 2 1.75 2H14.25C14.6642 2 15 2.33579 15 2.75V13.25C15 13.5658 14.8022 13.8477 14.5053 13.9552C14.2084 14.0627 13.876 13.9727 13.6738 13.7301L11.3987 11H4.60128L2.32617 13.7301C2.12402 13.9727 1.79159 14.0627 1.49468 13.9552C1.19778 13.8477 1 13.5658 1 13.25V2.75ZM5 9.5H11V7.36049C11 6.3129 11.3463 5.2947 11.985 4.46436L12.7269 3.5H3.28451L4.04177 4.47257L4.0501 4.48326L4.05 4.48333C4.66665 5.30554 5 6.30557 5 7.33333V9.5ZM2.5 4.93402V11.1785L3.5 9.97846V7.33333C3.5 6.63227 3.27331 5.95007 2.85385 5.38848L2.5 4.93402ZM13.5 4.95509L13.174 5.37893C12.737 5.94706 12.5 6.64372 12.5 7.36049V9.97846L13.5 11.1785V4.95509Z" fill="#fff"/>
</svg>

<svg xmlns="http://www.w3.org/2000/svg" width="32" height="32" fill="none" viewBox="0 0 16 16"><path fill="#181c1f" d="M0 0h16v16H0z"/><path fill="#fff" fill-rule="evenodd" d="M1 2.75A.75.75 0 0 1 1.75 2h12.5a.75.75 0 0 1 .75.75v10.5a.75.75 0 0 1-1.326.48L11.399 11H4.6l-2.275 2.73A.75.75 0 0 1 1 13.25zM5 9.5h6V7.36a4.75 4.75 0 0 1 .985-2.896l.742-.964H3.285l.757.973.008.01A4.75 4.75 0 0 1 5 7.333zM2.5 4.934v6.244l1-1.2V7.333a3.25 3.25 0 0 0-.646-1.945zm11 .021-.326.424A3.25 3.25 0 0 0 12.5 7.36v2.618l1 1.2z" clip-rule="evenodd"/></svg>
